Papirus/24x24/apps/GP6-icon.svg

<svg xmlns="http://www.w3.org/2000/svg" width="24" height="24" version="1">
 <path style="fill:#285b1f" d="M 18.48,18.028 C 14.214,22.878 10.4956,22.741 7.942,20.516 4.1105,17.177 0.566,5.045 2.587,2.748 4.6078,0.451 17.328,3.9465 20.056,6.4888 c 2.7276,2.5426 2.915,6.4339 -1.5759,11.539 z"/>
 <path style="opacity:0.1;fill:#ffffff" d="M 5.2325,2.0014 C 3.983,2.0201 3.029,2.2459 2.5869,2.7484 2.1529,3.2418 1.97776,4.1907 2.0049,5.4063 2.0321,4.4311 2.2143,3.672 2.5869,3.2484 c 2.0209,-2.2973 14.741,1.1976 17.469,3.7404 1.158,1.0799 1.852,2.4058 1.93,3.9618 0.061,-1.7739 -0.65,-3.2684 -1.93,-4.4619 C 17.9249,4.5021 9.6949,1.9343 5.2329,2.0013 Z"/>
 <path style="opacity:0.2" d="m 2.0049,5.4067 c -0.12071,4.315 2.8123,12.885 5.9375,15.609 2.5531,2.225 6.2716,2.362 10.538,-2.488 2.583,-2.937 3.612,-5.47 3.506,-7.5772 -0.068,2.0052 -1.124,4.3682 -3.506,7.0772 -4.267,4.85 -7.9845,4.713 -10.538,2.488 C 4.9339,17.8927 2.1043,9.8527 2.0053,5.4057 Z"/>
 <path style="fill:#daff60" d="m 9.9980477,8 c -2,-1e-7 -3.9994999,1 -3.9980469,4 -0.00145,3 1.9980469,4 3.9980469,4 2.0000003,0 3.0019533,-0.976564 3.0019533,-0.976562 l 0,-3.023438 -3,0 0,1 1.996094,0 0,1.59375 c 0,0 -0.998047,0.40625 -1.9980473,0.40625 -2,0 -2.9994999,-1 -2.9980469,-3 -0.00145,-2 0.9980469,-3.0000002 2.9980469,-3.0351562 2.0000003,0.035156 3.0000003,1.1093752 3.0000003,1.1093752 l 0,-1.2500002 c 0,0 -1,-0.8242187 -3.0000003,-0.8242188 z m 4.0019533,0 0,8 1,0 0,-3 0.765625,0 c 1.014874,-0.0091 1.931631,-0.204889 2.449219,-0.642578 0.52163,-0.437688 0.78125,-0.884178 0.78125,-1.740234 0,-0.8483121 -0.25962,-1.491999 -0.78125,-1.929688 C 17.697257,8.245939 16.780541,8 15.765626,8 l -1.765625,0 z m 1,1.0019531 0.851563,0 c 0.684533,-0.01817 1.213875,0.1381054 1.58789,0.4160157 0.374014,0.2779138 0.560547,0.6675822 0.560547,1.1777342 0,0.513964 -0.186533,0.71037 -0.560547,0.988281 C 17.065439,11.861895 16.536457,12 15.851564,12 l -0.851563,0 0,-2.9980469 z"/>
</svg>

<svg xmlns="http://www.w3.org/2000/svg" width="24" height="24" version="1">
 <path style="fill:#4f4f4f" d="M 18.48,18.028 C 14.214,22.878 10.4956,22.741 7.942,20.516 4.1105,17.177 0.566,5.045 2.587,2.748 4.6078,0.451 17.328,3.9465 20.056,6.4888 c 2.7276,2.5426 2.915,6.4339 -1.5759,11.539 z"/>
 <path style="opacity:0.1;fill:#ffffff" d="M 5.2325,2.0014 C 3.983,2.0201 3.029,2.2459 2.5869,2.7484 2.1529,3.2418 1.97776,4.1907 2.0049,5.4063 2.0321,4.4311 2.2143,3.672 2.5869,3.2484 c 2.0209,-2.2973 14.741,1.1976 17.469,3.7404 1.158,1.0799 1.852,2.4058 1.93,3.9618 0.061,-1.7739 -0.65,-3.2684 -1.93,-4.4619 C 17.9249,4.5021 9.6949,1.9343 5.2329,2.0013 Z"/>
 <path style="opacity:0.2" d="m 2.0049,5.4067 c -0.12071,4.315 2.8123,12.885 5.9375,15.609 2.5531,2.225 6.2716,2.362 10.538,-2.488 2.583,-2.937 3.612,-5.47 3.506,-7.5772 -0.068,2.0052 -1.124,4.3682 -3.506,7.0772 -4.267,4.85 -7.9845,4.713 -10.538,2.488 C 4.9339,17.8927 2.1043,9.8527 2.0053,5.4057 Z"/>
 <path style="opacity:0.2" d="m 9.9980469,8.5 c -2,-10e-8 -3.9994999,1 -3.9980469,4 -0.00145,3 1.9980469,4 3.9980469,4 C 11.998047,16.5 13,15.523435 13,15.523438 V 12.5 h -3 v 1 h 1.996094 v 1.59375 c 0,0 -0.998047,0.40625 -1.9980471,0.40625 -2,0 -2.9994999,-1 -2.9980469,-3 -0.00145,-2 0.9980469,-3.0000003 2.9980469,-3.0351562 2.0000001,0.035156 3.0000001,1.1093752 3.0000001,1.1093752 V 9.3242188 c 0,0 -1,-0.8242187 -3.0000001,-0.8242188 z M 14,8.5 v 8 h 1 v -3 h 0.765625 c 1.014874,-0.0091 1.931631,-0.204889 2.449219,-0.642578 0.52163,-0.437688 0.78125,-0.884178 0.78125,-1.740234 0,-0.848313 -0.25962,-1.491999 -0.78125,-1.929688 C 17.697256,8.745939 16.78054,8.5 15.765625,8.5 Z m 1,1.0019531 h 0.851562 c 0.684534,-0.01817 1.213876,0.1381054 1.587891,0.4160157 C 17.813467,10.195883 18,10.585551 18,11.095703 c 0,0.513964 -0.186533,0.71037 -0.560547,0.988281 C 17.065438,12.361895 16.536456,12.5 15.851562,12.5 H 15 Z"/>
 <path style="fill:#ffffff" d="m 9.9980477,8 c -2,-1e-7 -3.9994999,1 -3.9980469,4 -0.00145,3 1.9980469,4 3.9980469,4 2.0000003,0 3.0019533,-0.976564 3.0019533,-0.976562 V 12 h -3 v 1 h 1.996094 v 1.59375 c 0,0 -0.998047,0.40625 -1.9980473,0.40625 -2,0 -2.9994999,-1 -2.9980469,-3 -0.00145,-2 0.9980469,-3.0000002 2.9980469,-3.0351562 2.0000003,0.035156 3.0000003,1.1093752 3.0000003,1.1093752 V 8.8242188 c 0,0 -1,-0.8242187 -3.0000003,-0.8242188 z"/>
 <path style="fill:#f14649" d="M 14 8 L 14 16 L 15 16 L 15 13 L 15.765625 13 C 16.780499 12.9909 17.697256 12.795111 18.214844 12.357422 C 18.736474 11.919734 18.996094 11.473244 18.996094 10.617188 C 18.996094 9.7688754 18.736474 9.125189 18.214844 8.6875 C 17.697256 8.245939 16.78054 8 15.765625 8 L 14 8 z M 15 9.0019531 L 15.851562 9.0019531 C 16.536095 8.9837831 17.065438 9.1400585 17.439453 9.4179688 C 17.813467 9.6958826 18 10.085551 18 10.595703 C 18 11.109667 17.813467 11.306073 17.439453 11.583984 C 17.065438 11.861895 16.536456 12 15.851562 12 L 15 12 L 15 9.0019531 z"/>
</svg>
